src/icons/solid/media/audio-on.svg

<svg width="24" height="24" viewBox="0 0 24 24" fill="none" xmlns="http://www.w3.org/2000/svg">
<g clip-path="url(#clip0_1_3266)">
<path d="M13.91 19.9884C13.78 19.9884 13.65 19.9484 13.54 19.8785L8.11001 16.351H6.07001C3.83001 16.351 2.01001 14.3925 2.01001 11.9942C2.01001 9.59593 3.82001 7.63735 6.06001 7.63735H8.10001L13.54 4.10989C13.75 3.97 14.03 3.96 14.25 4.08991C14.47 4.21982 14.61 4.45964 14.61 4.72945V19.2689C14.61 19.5288 14.47 19.7786 14.25 19.9085C14.14 19.9684 14.03 19.9984 13.91 19.9984V19.9884ZM19.31 17.9499C19.14 17.9499 18.96 17.8799 18.83 17.75C18.55 17.4702 18.54 17.0106 18.81 16.7208C21.21 14.1227 21.21 9.89571 18.81 7.30758C18.54 7.01779 18.55 6.55813 18.83 6.27833C19.11 5.99853 19.55 6.00852 19.82 6.29831C22.74 9.44604 22.74 14.5823 19.82 17.7301C19.68 17.8799 19.5 17.9499 19.32 17.9499H19.31ZM17.17 15.6216C17 15.6216 16.82 15.5516 16.69 15.4217C16.41 15.1419 16.4 14.6823 16.67 14.3925C17.89 13.0734 17.89 10.935 16.67 9.61592C16.4 9.32613 16.41 8.86646 16.69 8.58666C16.97 8.30686 17.41 8.31685 17.68 8.60665C19.41 10.4753 19.41 13.5331 17.68 15.4017C17.54 15.5516 17.36 15.6216 17.18 15.6216H17.17Z" fill="#1D1B20"/>
</g>
<defs>
<clipPath id="clip0_1_3266">
<rect width="24" height="24" fill="white"/>
</clipPath>
</defs>
</svg>

<svg xmlns="http://www.w3.org/2000/svg" width="24" height="24" fill="none" viewBox="0 0 24 24"><g clip-path="url(#a)"><path fill="currentColor" d="M13.91 19.988c-.13 0-.26-.04-.37-.11l-5.43-3.527H6.07c-2.24 0-4.06-1.958-4.06-4.357s1.81-4.357 4.05-4.357H8.1l5.44-3.527c.21-.14.49-.15.71-.02s.36.37.36.64v14.539c0 .26-.14.51-.36.64-.11.06-.22.09-.34.09zm5.4-2.038a.7.7 0 0 1-.48-.2.745.745 0 0 1-.02-1.03c2.4-2.597 2.4-6.824 0-9.412a.745.745 0 0 1 .02-1.03.68.68 0 0 1 .99.02c2.92 3.148 2.92 8.284 0 11.432-.14.15-.32.22-.5.22zm-2.14-2.328a.7.7 0 0 1-.48-.2.745.745 0 0 1-.02-1.03c1.22-1.319 1.22-3.457 0-4.776a.745.745 0 0 1 .02-1.03.68.68 0 0 1 .99.02c1.73 1.87 1.73 4.927 0 6.796-.14.15-.32.22-.5.22z"/></g><defs><clipPath id="a"><path fill="currentColor" d="M0 0h24v24H0z"/></clipPath></defs></svg>
